X: 3366
T:Gan Ainm
R:jig
S:Kevin Finucane
M:6/8
L:1/8
K:D
faf dfd|ABA FDF|~G3 EGF|Eed cBA|!
f/g/af dfd|ABA FDF|~G3 Ecd|1 edc d2e:|2 edc d2A||!
|:ABA FED|FGF FED|EFE A,CE|EAB cBA|!
F2A AFD|GEE EDC|CEC A,GE|1 GEC D2A:|2 GEC D3||!
|:AFA dcd|ede fdB|gfe ~d3|Bcd edB|!
AFA dcd|ede gfe|dcB Ace|1 cAc d3:|2 cAc d2e||!
